packages/core/src/svgs/eurs.svg

<svg width="24" height="24" viewBox="0 0 24 24" fill="none" xmlns="http://www.w3.org/2000/svg">
<g clip-path="url(#clip0_31_10147)">
<path d="M0 0H24V24H0V0Z" fill="url(#paint0_linear_31_10147)"/>
<path d="M16.9041 16.7929C18.1582 15.5131 18.8595 13.792 18.8571 12.0002C18.8571 9.81021 17.8303 7.86021 16.2321 6.60449L15.0043 6.65164C13.1944 6.85821 11.5971 7.90649 10.8013 9.42749H17.5714L16.7143 11.1418H10.2895L10.2857 11.1804C10.203 11.8404 10.2115 12.1956 10.2857 12.8128L10.2908 12.8574H15.8571L15 14.5716H10.9414C11.6464 15.5882 12.8323 16.2684 14.1823 16.4998C15.3441 16.6986 16.3007 16.7689 16.9041 16.7929ZM14.9215 18.2055C14.0079 18.6361 13.01 18.8588 12 18.8574C8.21268 18.8574 5.14282 15.7875 5.14282 12.0002C5.14282 8.21292 8.21268 5.14307 12 5.14307C12.5353 5.14307 13.056 5.20435 13.5557 5.32049C12.5028 5.56369 11.5277 6.06707 10.7197 6.78457C9.9117 7.50207 9.29654 8.41076 8.93054 9.42749H7.71425L6.85711 11.1418H8.57139V11.1431C8.51954 11.8356 8.52597 12.2081 8.57139 12.8574H7.71425L6.85711 14.5716H9.05139C10.0444 16.5692 12.3334 17.9076 14.1823 18.1275C14.4441 18.1588 14.6905 18.1845 14.9215 18.2055Z" fill="white"/>
</g>
<defs>
<linearGradient id="paint0_linear_31_10147" x1="23.1926" y1="1.49786" x2="1.25143" y2="21.3527" gradientUnits="userSpaceOnUse">
<stop stop-color="#B030EC"/>
<stop offset="0.464" stop-color="#2B7FEF"/>
<stop offset="1" stop-color="#15BCFF"/>
</linearGradient>
<clipPath id="clip0_31_10147">
<rect width="24" height="24" fill="white"/>
</clipPath>
</defs>
</svg>

<svg xmlns="http://www.w3.org/2000/svg" width="24" height="24" fill="none" viewBox="0 0 24 24"><g clip-path="url(#a)"><path fill="url(#b)" d="M0 0h24v24H0z"/><path fill="#fff" d="M16.904 16.793A6.84 6.84 0 0 0 18.857 12c0-2.19-1.027-4.14-2.625-5.396l-1.228.048c-1.81.206-3.407 1.254-4.203 2.775h6.77l-.857 1.715H10.29l-.004.038a5.7 5.7 0 0 0 0 1.633l.005.044h5.566L15 14.572h-4.059c.705 1.016 1.891 1.696 3.241 1.928 1.162.199 2.119.269 2.722.293m-1.982 1.413A6.857 6.857 0 1 1 13.556 5.32 6.46 6.46 0 0 0 8.93 9.426H7.714l-.857 1.715h1.714v.001a10 10 0 0 0 0 1.714h-.857l-.857 1.715h2.194c.993 1.997 3.282 3.336 5.131 3.556q.393.045.74.078"/></g><defs><linearGradient id="b" x1="23.193" x2="1.251" y1="1.498" y2="21.353" gradientUnits="userSpaceOnUse"><stop stop-color="#B030EC"/><stop offset=".464" stop-color="#2B7FEF"/><stop offset="1" stop-color="#15BCFF"/></linearGradient><clipPath id="a"><path fill="#fff" d="M0 0h24v24H0z"/></clipPath></defs></svg>
